!!!COM: Giovanni Maria Nanino
!!!OPR: Regole di contrappunto di Gio. M. Nanino e del suo fratello minore.
!!!OTL: [Didactic example]
!!!YOR: MS ca. 1580-ca.1610.
!!!YOR: Bologna, Civico Museo Bibliografico Musicale.
!!!ONB: Reprinted (without acknowledgement) by Rocco Rodio "Regole di musica"
!!!ONB: [3rd edition].  Naples: Gio. Giocomo Carlino & Costantino Vitale, 1619.
!!!ONB: Encoded from Rodio, p. 22.
!!!ONB: Canon at the unison after a minim with the cantus firmus above.
**kern	**kern	**kern
*guida	*conseq	*CF
*M4/2	*M4/2	*M4/2
*k[]	*k[]	*k[]
=1	=1	=1
4FF	2r	1A
4GG	.	.
4AA	4FF	.
4BB	4GG	.
2C	4AA	1E
.	4BB	.
2r	2C	.
=2	=2	=2
4BB	2r	1D
4C	.	.
4D	4BB	.
4C	4C	.
2BB-	4D	1F
.	4C	.
2r	2BB-	.
=3	=3	=3
2r	2r	1E
1GG	2r	.
.	1GG	1D
[2D	.	.
=4	=4	=4
4D]	2.D	1F
4C	.	.
4BB-	.	.
4AA	4C	.
2GG	4BB-	1G
.	4AA	.
2r	2GG	.
=5	=5	=5
2D	2r	1A
2A	2D	.
2AA	2A	1c
4E	2AA	.
4F	.	.
=6	=6	=6
2G	4E	1B
.	4F	.
2r	2G	.
2r	2r	1A
[2A	2r	.
=7	=7	=7
4A]	2.A	1c
4G	.	.
4F	.	.
4E	4G	.
4D	4F	1d
4C	4E	.
[2BB-	4D	.
.	4C	.
=8	=8	=8
2BB-]	1BB-	1G
2r	.	.
4AA	2r	1A
4BB-	.	.
4C	4AA	.
4D	4BB-	.
=9	=9	=9
2E	4C	1G
.	4D	.
2r	2E	.
4D	2r	1d
4E	.	.
4F	4D	.
4G	4E	.
=10	=10	=10
2A	4F	1c
.	4G	.
2F	2A	.
2D	2F	1d
2r	2D	.
=11	=11	=11
4GG	2r	1G
4AA	.	.
4BB	4GG	.
4C	4AA	.
2D	4BB-	1F
.	4C	.
[2BB-	2D	.
=12	=12	=12
4BB-]	2.BB-	1B-
4C	.	.
4D	.	.
4E	4C	.
4F	4D	1A
4G	4E	.
2A	4F	.
.	4G	.
=13	=13	=13
2F	2A	1D
2r	2F	.
2r	2r	1E
4C	2r	.
4D	.	.
=14	=14	=14
4E	4C	1G
4D	4D	.
4C	4E	.
4BB	4D	.
4AA	4C	1A
4GG	4BB	.
2FF	4AA	.
.	4GG	.
=15	=15	=15
2AA	2FF	1c
2r	2AA	.
4BB	2r	1B
4C	.	.
4D	4BB	.
4E	4C	.
=16	=16	=16
2F	4D	1A
.	4E	.
2r	2F	.
2C	2r	1G
2r	2C	.
=17	=17	=17
4FF	2r	1F
4GG	.	.
4AA	4FF	.
4BB	4GG	.
2C	4AA	1E
.	4BB	.
2r	2C	.
=18	=18	=18
2r	2r	1D
2GG	2r	.
2G	2GG	1E
4GG	2G	.
4AA	.	.
=19	=19	=19
4BB	4GG	[1D
4C	4AA	.
2D	4BB	.
.	4C	.
[1GG	2D	1D_
.	[2GG	.
=20	=20	=20
0GG]	0GG]	0D]
==	==	==
*-	*-	*-
!!!CDT: 1545///-1607/3/11
!!!OCY: Italia
!!!ODT: 1586
!!!AFR: cantus firmus canon
!!!AST: polyphony
!!!AMT: simple quadruple
!!!AIN: vox
!!!YEP: David Huron and Denis Collins
!!!YEN: Canada
!!!EEV: 1.0
!!!RDT: 1995 July 23
!!!YED: 1995 August 31
